svgs/duotone/turkey.svg

<svg xmlns="http://www.w3.org/2000/svg" viewBox="0 0 640 512"><!-- Font Awesome Pro 6.0.0-alpha2 by @fontawesome - https://fontawesome.com License - https://fontawesome.com/license (Commercial License) --><defs><style>.fa-secondary{opacity:.4}</style></defs><path d="M488.705 193.92C542.482 252.062 576 325.533 576 384C576 498.867 447.062 512 288 512S0 498.867 0 384C0 269.131 128.938 96.004 288 96C333.934 96.002 377.195 110.734 415.725 134.039C409.283 136.75 402.512 139.322 395.277 141.637C327.383 163.344 310.941 146.779 266.24 163.389C184.404 193.275 172.658 288.822 219.045 342.967C275.723 409.879 392.361 394.883 421.883 298.518C425.469 286.795 440.457 252.465 463.893 221.164C472.129 210.156 480.426 201.482 488.705 193.92Z" class="fa-secondary"/><path d="M639.351 140.338C632.199 185.662 588.046 192.125 555.595 175.721C534.597 164.76 514.732 173.533 500.39 183.762C488.285 192.385 476.007 204.973 463.892 221.164C440.456 252.465 425.468 286.795 421.882 298.518C392.361 394.883 275.722 409.879 219.044 342.967C172.658 288.822 184.404 193.275 266.24 163.389C310.941 146.779 327.382 163.344 395.277 141.637C426.437 131.666 450.779 117.729 463.82 102.375C474.009 90.346 477.474 77.561 474.294 63.27C466.978 29.719 494.439 -1.564 529.021 0.061C571.414 2.018 595.363 48.156 570.513 82.363C607.775 70.594 645.425 101.504 639.351 140.338Z" class="fa-primary"/></svg>

<svg xmlns="http://www.w3.org/2000/svg" viewBox="0 0 640 512"><!--! Font Awesome Pro 6.0.0-alpha3 by @fontawesome - https://fontawesome.com License - https://fontawesome.com/license (Commercial License) --><defs><style>.fa-secondary{opacity:.4}</style></defs><path class="fa-primary" d="M639.4 140.3c-7.152 45.32-51.3 51.79-83.76 35.38c-20.1-10.96-40.86-2.188-55.21 8.041c-12.11 8.623-24.38 21.21-36.5 37.4c-23.44 31.3-38.42 65.63-42.01 77.35c-29.52 96.37-146.2 111.4-202.8 44.45C172.7 288.8 184.4 193.3 266.2 163.4c44.7-16.61 61.14-.0449 129-21.75c31.16-9.971 55.5-23.91 68.54-39.26c10.19-12.03 13.65-24.81 10.47-39.11c-7.316-33.55 20.14-64.83 54.73-63.21c42.39 1.957 66.34 48.1 41.49 82.3C607.8 70.59 645.4 101.5 639.4 140.3z"/><path class="fa-secondary" d="M488.7 193.9c53.78 58.14 87.32 131.6 87.32 190.1C576 498.9 447.1 512 288 512S0 498.9 0 383.1c0-114.9 128.9-288 287.1-288c45.93 .002 89.2 14.74 127.7 38.05c-6.441 2.711-13.21 5.283-20.45 7.598C327.4 163.3 310.9 146.8 266.2 163.4c-81.84 29.89-93.58 125.4-47.2 179.6c56.68 66.91 173.3 51.92 202.8-44.45c3.586-11.72 18.57-46.05 42.01-77.35C472.1 210.2 480.4 201.5 488.7 193.9z"/></svg>
